X: 5638
T: Butterfly, The
R: slip jig
M: 9/8
K: Eminor
|:"Em"B2E G2E "D"F3|"Em"B2E G2E "D"FED|"Em"B2E G2E "D"F3|"C"B2d d2B "D"AGA:|
|:"C"B2c e2f g3|"D/B"B2e g2e dBA|"Am"B2c e2f g2a|"C"b2a g2e "D"dBA:|
|:"Em"B3 B2A G2A|B3 BAB "D"dBA|"Em"B3 B2A "G"G2A|"C"B2e g2e "D"dBA:|

